!!!COM: Béla Bartók
!!!OTL: [T339_Bar-w35p37-38mh11m1-h12m4]
**kern	**dynam	**kern	**dynam	**kern	**dynam	**kern	**dynam
*grp:A	*grp:A	*grp:A	*grp:A	*grp:B	*grp:B	*grp:B	*grp:B
*part4	*part4	*part3	*part3	*part2	*part2	*part1	*part1
*staff4	*	*staff3	*	*staff2	*	*staff1	*
*I"Violoncello	*	*I"Viola	*	*I"Violin II	*	*I"Violin I	*
*I'Vc.	*	*I'Vla.	*	*I'Vln. II	*	*I'Vln. I	*
*clefF4	*	*clefC3	*	*clefG2	*	*clefG2	*
*k[]	*	*k[]	*	*k[]	*	*k[]	*
*M3/8	*	*M3/8	*	*M3/8	*	*M3/8	*
!!LO:REH:t=11
=154	=154	=154	=154	=154	=154	=154	=154
!LO:TX:a:t=a 5 battute	!LO:DY:t=[ %s marcato]	!	!LO:DY:t=[ %s marcato]	!	!	!LO:TX:t=[Meno vivo [quarter]=120]	!
!!!ONB:There should be a brace between Vla. + Vc. to show that the battute sign applies to both parts.
!!!ONB: Downward arrows indicating order of triple-stop playingin Vc. are not available in Verovio
4EE^^< 4BB 4E	ff	4B 4e^^	ff	8ryy	4ryy	8ryy	4ryy
*	*	*	*	*tremolo	*	*tremolo	*
.	.	.	.	8ryy	.	16ryy	.
.	.	.	.	.	.	16ryy	.
[8FF#XL [8C#X [8F#X	.	[8c#XL [8f#X	.	8ryy	.	16ryy	.
.	.	.	.	.	.	16ryy	.
=155	=155	=155	=155	=155	=155	=155	=155
8FF#J] 8C#] 8F#]	.	8c#J] 8f#]	.	8r~^^yy	.	8ryy	.
8GG#XL 8D#X	.	8d#XL 8g#X	.	16ryy	.	16ryy	.
.	.	.	.	16ryy	.	16ryy	.
8AAJ 8E	.	8eJ 8a	.	16ryy	.	16ryy	.
.	.	.	.	16ryy	.	16ryy	.
=156	=156	=156	=156	=156	=156	=156	=156
8FF#X 8C#X	.	8c#X 8f#X	.	8ryy	.	8ryy	.
(>8DDL [<8AA	.	[4A [4d	.	16ryy	.	16ryy	.
.	.	.	.	16ryy	.	16ryy	.
8AAJ] 8D	.	.	.	16ryy	.	16ryy	.
.	.	.	.	16ryy	.	16ryy	.
=157	=157	=157	=157	=157	=157	=157	=157
8D 8A)	.	8A] 8d]	.	8r~^^yy	.	8ryy	.
8BBL 8E	.	8BL 8e	.	16ryy	.	16ryy	.
.	.	.	.	16ryy	.	16ryy	.
8FF#XJ 8BB	.	8F#XJ 8B	.	16ryy	.	16ryy	.
.	.	.	.	16ryy	.	16ryy	.
=158	=158	=158	=158	=158	=158	=158	=158
\(8CC#XL 8GG#X	.	(8G#XL 8c#X	.	8ryy	.	8ryy	.
8G#XJ 8c#X)	.	8C#XJ)	.	16ryy	.	16ryy	.
.	.	.	.	16ryy	.	16ryy	.
8DD#X 8AA#X	.	8A#X 8d#X	.	16ryy	.	16ryy	.
.	.	.	.	16ryy	.	16ryy	.
=159	=159	=159	=159	=159	=159	=159	=159
(8EE^^L \8BB	.	4B~^^ 4e	.	8r~^^yy	.	8ryy	.
8EJ 8B)	.	.	.	16ryy	.	16ryy	.
.	.	.	.	16ryy	.	16ryy	.
(8FF#XL \8C#X	.	[8c#XL [8f#X	.	16ryy	.	16ryy	.
.	.	.	.	16ryy	.	16ryy	.
=160	=160	=160	=160	=160	=160	=160	=160
8F#XJ 8c#X)	.	8c#J] 8f#]	.	8ryy	.	8ryy	.
8GG#XL 8D#X	.	8d#XL 8g#X	.	16ryy	.	16ryy	.
.	.	.	.	16ryy	.	16ryy	.
8AAJ 8E	.	8eJ 8a	.	16ryy	.	16ryy	.
.	.	.	.	16ryy	.	16ryy	.
!!linebreak:original
=161	=161	=161	=161	=161	=161	=161	=161
8FF#X 8C#X	.	8c#X 8f#X	.	8r~^^yy	.	8ryy	.
(8DDL 8AA	.	(4A 4d	.	16ryy	.	16ryy	.
.	.	.	.	16ryy	.	16ryy	.
8DJ 8A	.	.	.	16ryy	.	16ryy	.
.	.	.	.	16ryy	.	16ryy	.
=162	=162	=162	=162	=162	=162	=162	=162
8d 8a)	.	8D 8A)	.	8ryy	.	8ryy	.
8EL 8B	.	8BL 8e	.	16ryy	.	16ryy	.
.	.	.	.	16ryy	.	16ryy	.
8BBJ 8F#X	.	8BJ 8f#X	.	16ryy	.	16ryy	.
.	.	.	.	16ryy	.	16ryy	.
=163	=163	=163	=163	=163	=163	=163	=163
(8C#XL 8G#X	.	4g#X 4cc#X	.	8r~^^yy	.	8ryy	.
8CC#XJ 8GG#X)	.	.	.	16ryy	.	16ryy	.
.	.	.	.	16ryy	.	16ryy	.
8D#X 8A#X	.	8d#X 8a#X	.	16ryy	.	16ryy	.
.	.	.	.	16ryy	.	16ryy	.
!!LO:REH:t=12
=164	=164	=164	=164	=164	=164	=164	=164
(8E^^L /8B	.	4e~^^ 4b	.	8ryy	.	8ryy	.
!	!	!	!	!	!	!	!LO:DY:t=%s marcato
8EEJ 8BB)	.	.	.	16ryy	.	8ryy	4ryy
.	.	.	.	16ryy	.	.	.
(8F#XL /8c#X	.	[8c#XL [8f#X	.	16ryy	.	8ryy	.
.	.	.	.	16ryy	.	.	.
=165	=165	=165	=165	=165	=165	=165	=165
!	!	!	!	!	!	!LO:TX:b:t=a5 battute	!
.	.	.	.	.	.	8ryy	.
8FF#XJ 8C#X)	.	8c#J] 8f#]	.	8ryy	.	4ryy	.
8G#XL 8d#X	.	8d#XL 8g#X	.	16ryy	.	.	.
.	.	.	.	16ryy	.	.	.
8AJ 8e	.	8eJ 8a	.	16ryy	.	8ryy	.
.	.	.	.	16ryy	.	.	.
=166	=166	=166	=166	=166	=166	=166	=166
8F#X 8c#X	.	8c#X 8f#X	.	8r~^^yy	.	8ryy	.
[4Dn [4A	.	[4dn [4a	.	16ryy	.	8ryy	.
.	.	.	.	16ryy	.	.	.
.	.	.	.	16ryy	.	8ryy	.
.	.	.	.	16ryy	.	.	.
=167	=167	=167	=167	=167	=167	=167	=167
8D] 8A]	.	8d] 8a]	.	8ryy	.	8ryy	.
8BL 8e	.	8BL 8e	.	16ryy	.	4ryy	.
.	.	.	.	16ryy	.	.	.
8F#XJ 8B	.	8BJ 8f#X	.	16ryy	.	.	.
.	.	.	.	16ryy	.	.	.
*	*	*	*	*Xtremolo	*	*	*
=	=	=	=	=	=	=	=
*-	*-	*-	*-	*-	*-	*-	*-
!!!system-decoration: [(s1,s2,s3,s4)]
!!!RDF**kern: > = above
!!!RDF**kern: < = below
!!!EED: Daniel Wright
!!!EEV: 2021/07/21
!!!EED2: Jason Lee
!!!EEV2: 2022/01/30
